X:102
T:White Cockade. JC.102
R:Scots Measure
S:John Clare,Poet,Helpston. (1793-1864)
N:MR. the two notes after the first double bar lines,
N:qu’s in MS, are given as semi-qu’s.
N:Song text exists. See Deacon.
O:England
A:Northamptonshire
Z:vmp.P. Headford
M:2/4
L:1/8
Q:1/4=100
K:G
G/A/|\
BBB A/G/|BBB g/e/|dBB A/G/|FAA G/A/|!
BBB A/G/|Bd ga|b/a/g/f/ e/f/g/e/|dB ” crot”B:|!
|:B/c/|dBgB|dBB B/c/|dBgB|aAA G/A/|!
BBB A/G/|Bd g a|b/a/g/f/ ” Qu’s”e/f/g/e/|dB ” crot”B:|

